src/images/github-button.svg

<svg xmlns="http://www.w3.org/2000/svg" width="134" height="200" fill="none" viewBox="0 0 134 200"><path fill="#fff" fill-rule="evenodd" stroke="#fff" stroke-linecap="round" stroke-linejoin="round" stroke-width="2.002" d="M67.4813 1.59961C31.3065 1.59961 2 30.3524 2 65.8166C2 95.8142 23.005 120.927 51.3584 127.988L51.613 113.43C51.613 113.43 37.9347 117.95 30.237 108.902C28.1489 106.449 28.5563 102.409 25.8061 99.8032C23.1575 97.391 20.7366 94.7399 18.5741 91.8834C18.5741 91.8834 24.3946 91.6214 27.4649 93.3392C30.5353 95.0571 34.1513 104.258 39.1061 105.488C44.0608 106.718 51.7003 103.967 51.7003 103.967L55.1999 95.574C38.9314 95.574 25.5514 82.3913 25.5514 67.2725C25.5514 58.9451 26.5846 50.0499 32.8999 45.0273C31.441 42.5886 30.553 39.8511 30.3025 37.0202C29.9387 32.4124 32.8999 27.4626 32.8999 27.4626C36.0196 27.2862 39.1442 27.7112 42.1036 28.7146C46.4109 30.3597 50.1069 34.043 50.1069 34.043C50.1069 34.043 59.1724 31.3278 67.8451 31.175C73.5848 31.187 79.2967 31.973 84.8266 33.5116C87.3223 31.9154 89.9287 30.4996 92.6261 29.2751C95.1662 28.2572 97.8042 27.5035 100.498 27.0258C102.456 29.4639 103.685 32.4064 104.042 35.5134C104.493 40.4341 102.288 46.7233 102.288 46.7233C107.992 51.7168 110 58.4574 110 66.3116C110 81.4232 96.0602 94.5476 79.3698 96.0908C78.3439 96.1854 82.542 97.6485 83.5097 100.385C85.6123 106.311 84.7538 120.09 84.1499 127.843C112.241 120.607 132.984 95.6249 132.984 65.8093C132.984 30.3524 103.656 1.59961 67.4813 1.59961Z" clip-rule="evenodd"/><path fill="#fff" d="M22.0993 186.312V189.982H30.2082C29.7189 192.883 27.7266 195.015 24.3712 195.015C19.8624 195.015 17.6604 192.952 17.6604 186.976C17.6604 180.999 19.6876 178.937 23.9518 178.937C27.3771 178.937 28.915 180.544 29.3694 183.096H33.8782C33.5287 178.203 29.8238 174.742 23.9518 174.742C16.4021 174.742 13.1166 180.16 13.1166 186.976C13.1166 193.791 16.4021 199.209 23.3227 199.209C27.482 199.209 29.0199 196.902 29.649 195.539H30.2082V198.859H34.752V186.312H22.0993ZM38.7669 174.393V177.888H43.3107V174.393H38.7669ZM38.7669 180.859V198.859H43.3107V180.859H38.7669ZM58.2175 185.053V180.859H53.429V174.393H48.8853V180.859H46.0891V185.053H48.8853V198.859H58.2175V194.665H53.429V185.053H58.2175ZM78.6779 180.859H66.7941V174.393H62.2504V198.859H66.7941V185.053H74.1341V198.859H78.6779V180.859ZM99.9493 191.17V180.859H95.4055V190.82C95.4055 193.966 94.322 195.015 91.4209 195.015C88.5199 195.015 87.4364 193.966 87.4364 190.82V180.859H82.8926V191.17C82.8926 197.007 86.1082 199.209 91.4209 199.209C96.7337 199.209 99.9493 197.007 99.9493 191.17ZM113.266 180.509C111.099 180.509 109.352 181.278 108.163 183.026V174.393H103.62V198.859H108.163V196.657C109.352 198.44 111.099 199.209 113.266 199.209C118.684 199.209 121.026 194.98 121.026 189.842C121.026 184.704 118.684 180.509 113.266 180.509ZM112.323 195.015C109.422 195.015 108.163 193.442 108.163 189.842C108.163 186.277 109.422 184.704 112.323 184.704C115.224 184.704 116.482 186.277 116.482 189.842C116.482 193.442 115.224 195.015 112.323 195.015Z"/></svg>

<svg fill="none" viewBox="0 0 134 200"><path fill="#fff" fill-rule="evenodd" stroke="#fff" stroke-linecap="round" stroke-linejoin="round" stroke-width="2.002" d="M67.481 1.6C31.307 1.6 2 30.352 2 65.817c0 29.997 21.005 55.11 49.358 62.171l.255-14.558s-13.678 4.52-21.376-4.528c-2.088-2.453-1.68-6.493-4.43-9.099a58.344 58.344 0 01-7.233-7.92s5.82-.262 8.89 1.456c3.071 1.718 6.687 10.919 11.642 12.149 4.955 1.23 12.594-1.521 12.594-1.521l3.5-8.393c-16.269 0-29.649-13.183-29.649-28.302 0-8.327 1.034-17.222 7.349-22.245a18.83 18.83 0 01-2.598-8.007c-.363-4.608 2.598-9.557 2.598-9.557 3.12-.177 6.244.248 9.204 1.252 4.307 1.645 8.003 5.328 8.003 5.328s9.065-2.715 17.738-2.868a63.85 63.85 0 0116.982 2.337 62.175 62.175 0 017.8-4.237 39.885 39.885 0 017.871-2.25 16.578 16.578 0 013.544 8.488c.451 4.921-1.754 11.21-1.754 11.21C107.992 51.717 110 58.457 110 66.312c0 15.111-13.94 28.236-30.63 29.779-1.026.094 3.172 1.558 4.14 4.294 2.102 5.926 1.244 19.705.64 27.458 28.091-7.236 48.834-32.218 48.834-62.034 0-35.457-29.328-64.21-65.503-64.21z" clip-rule="evenodd"/><path fill="#fff" d="M22.1 186.312v3.67h8.108c-.49 2.901-2.481 5.033-5.837 5.033-4.509 0-6.71-2.063-6.71-8.039 0-5.977 2.027-8.039 6.29-8.039 3.426 0 4.964 1.607 5.418 4.159h4.51c-.35-4.893-4.055-8.354-9.927-8.354-7.55 0-10.835 5.418-10.835 12.234 0 6.815 3.285 12.233 10.206 12.233 4.159 0 5.697-2.307 6.326-3.67h.56v3.32h4.543v-12.547H22.099zm16.667-11.919v3.495h4.544v-3.495h-4.544zm0 6.466v18h4.544v-18h-4.544zm19.45 4.194v-4.194H53.43v-6.466h-4.544v6.466H46.09v4.194h2.796v13.806h9.333v-4.194H53.43v-9.612h4.788zm20.46-4.194H66.795v-6.466H62.25v24.466h4.544v-13.806h7.34v13.806h4.544v-18zM99.95 191.17v-10.311h-4.543v9.961c0 3.146-1.084 4.195-3.985 4.195s-3.985-1.049-3.985-4.195v-9.961h-4.543v10.311c0 5.837 3.215 8.039 8.528 8.039 5.313 0 8.528-2.202 8.528-8.039zm13.317-10.661c-2.167 0-3.914.769-5.103 2.517v-8.633h-4.543v24.466h4.543v-2.202c1.189 1.783 2.936 2.552 5.103 2.552 5.418 0 7.76-4.229 7.76-9.367 0-5.138-2.342-9.333-7.76-9.333zm-.943 14.506c-2.901 0-4.16-1.573-4.16-5.173 0-3.565 1.259-5.138 4.16-5.138 2.901 0 4.159 1.573 4.159 5.138 0 3.6-1.258 5.173-4.159 5.173z"/></svg>
